X: 1
T: Cillian's Midnight Dip
M: 4/4
L: 1/8
R: reel
K: Dmix
|:BE ~E2 ABdB|AF ~F2 DFGF|Ez ed egfe|dBAF EFGA|
(AB)BA ~B2 dB|AF ~F2 DFGF|E2 ed egfe|1 dBAF DEED:|2 dBAF FE ~E2||
|:ed (3Bcd ez ag|fB ~B2 ggfg|efge ~a3 g|edBA Be ~e2|
ed (3Bcd ez ag|fB ~B2 ggfg|~a3 g effe|1 dBAF FE ~E2:|2 dBAF FEFA||
